src/icons/skills/tailwind.svg

<svg xmlns="http://www.w3.org/2000/svg" fill="none" viewBox="0 0 256 256"><rect width="256" height="256" fill="#242938" rx="60"/><path fill="url(#paint0_linear_2_119)" fill-rule="evenodd" d="M83 110C88.9991 86.0009 104.001 74 128 74C164 74 168.5 101 186.5 105.5C198.501 108.501 209 104.001 218 92C212.001 115.999 196.999 128 173 128C137 128 132.5 101 114.5 96.5C102.499 93.4991 92 97.9991 83 110ZM38 164C43.9991 140.001 59.0009 128 83 128C119 128 123.5 155 141.5 159.5C153.501 162.501 164 158.001 173 146C167.001 169.999 151.999 182 128 182C92 182 87.5 155 69.5 150.5C57.4991 147.499 47 151.999 38 164Z" clip-rule="evenodd"/><defs><linearGradient id="paint0_linear_2_119" x1="86.5" x2="163.5" y1="74" y2="185.5" gradientUnits="userSpaceOnUse"><stop stop-color="#32B1C1"/><stop offset="1" stop-color="#14C6B7"/></linearGradient></defs></svg>

<svg xmlns="http://www.w3.org/2000/svg" fill="none" viewBox="0 0 256 256"><rect width="256" height="256" fill="#242938" rx="60"/><path fill="url(#paint0_linear_2_119)" fill-rule="evenodd" d="M83 110c6-24 21-36 45-36 36 0 40.5 27 58.5 31.5 12 3 22.5-1.5 31.5-13.5-6 24-21 36-45 36-36 0-40.5-27-58.5-31.5C102.5 93.5 92 98 83 110ZM38 164c6-24 21-36 45-36 36 0 40.5 27 58.5 31.5 12 3 22.5-1.5 31.5-13.5-6 24-21 36-45 36-36 0-40.5-27-58.5-31.5-12-3-22.5 1.5-31.5 13.5Z" clip-rule="evenodd"/><defs><linearGradient id="paint0_linear_2_119" x1="86.5" x2="163.5" y1="74" y2="185.5" gradientUnits="userSpaceOnUse"><stop stop-color="#32B1C1"/><stop offset="1" stop-color="#14C6B7"/></linearGradient></defs></svg>
